src/pos-icons/hand-pointing-right.svg

<svg height="24" viewBox="0 0 24 24" width="24" xmlns="http://www.w3.org/2000/svg"><path d="m21 9a1 1 0 0 1 1 1 1 1 0 0 1 -1 1h-4.47l-.13 1.21-2.2 4.94c-.2.5-.73.85-1.34.85h-4.36c-.8 0-1.5-.73-1.5-1.5v-6.5c0-.39.16-.74.43-1l4.2-4.9.77.74c.2.19.32.45.32.74l-.03.22-1.69 3.2zm-19 9v-8h3v8z"/></svg>

<?xml version="1.0" encoding="UTF-8"?><!DOCTYPE svg PUBLIC "-//W3C//DTD SVG 1.1//EN" "http://www.w3.org/Graphics/SVG/1.1/DTD/svg11.dtd"><svg xmlns="http://www.w3.org/2000/svg" xmlns:xlink="http://www.w3.org/1999/xlink" version="1.1" id="mdi-hand-pointing-right" width="24" height="24" viewBox="0 0 24 24"><path d="M21,9A1,1 0 0,1 22,10A1,1 0 0,1 21,11H16.53L16.4,12.21L14.2,17.15C14,17.65 13.47,18 12.86,18H8.5C7.7,18 7,17.27 7,16.5V10C7,9.61 7.16,9.26 7.43,9L11.63,4.1L12.4,4.84C12.6,5.03 12.72,5.29 12.72,5.58L12.69,5.8L11,9H21M2,18V10H5V18H2Z" /></svg>
